!!!COM: Palestrina, Giovanni Perluigi da
!!!OPR: Missa Alma Redemptoris mater
!!!OMD: Sanctus
!!!OTL: Pleni
**kern	**kern	**kern	**kern	**kern
*Ibass	*Ibass	*Itenor	*Icalto	*Icalto
!Bassus 2	!Bassus 1	!Tenor	!Altus 2	!Altus 1
*clefF4	*clefF4	*clefGv2	*clefG2	*clefG2
*k[b-]	*k[b-]	*k[b-]	*k[b-]	*k[b-]
*F:ion	*F:ion	*F:ion	*F:ion	*F:ion
*M4/2	*M4/2	*M4/2	*M4/2	*M4/2
=40	=40	=40	=40	=40
0r	0r	1c	0r	0r
.	.	2d	.	.
.	.	2e	.	.
=41	=41	=41	=41	=41
1F	0r	0f	0r	0r
2A	.	.	.	.
2B-	.	.	.	.
=42	=42	=42	=42	=42
1c	0r	1e	0r	0r
2B-	.	2d	.	.
2A	.	[2f	.	.
=43	=43	=43	=43	=43
2.B-	0r	4f]	0r	0r
.	.	4e	.	.
.	.	4d	.	.
4A	.	4c	.	.
4G	.	4B-	.	.
4F	.	4A	.	.
4E	.	4G	.	.
4D	.	4F	.	.
=44	=44	=44	=44	=44
2E	0r	2G	0r	1c
1F	.	2.A	.	.
.	.	.	.	2d
.	.	4B-	.	.
2E	.	2c	.	2e
=45	=45	=45	=45	=45
0D	2r	2B-	0r	0f
.	2F	1A	.	.
.	2A	.	.	.
.	2B-	4G	.	.
.	.	4F	.	.
=46	=46	=46	=46	=46
1C	1c	2G	0r	1e
.	.	2c	.	.
1r	2B-	2.f	.	2d
.	2A	.	.	[2f
.	.	4e	.	.
=47	=47	=47	=47	=47
0r	1B-	4d	1f	4f]
.	.	4c	.	4e
.	.	2d	.	2d
.	2A	2e	2a	2c
.	2G	2g	2b-	2d
=48	=48	=48	=48	=48
0r	1A	2f	1cc	1c
.	.	2.e	.	.
.	2G	.	2b-	2g
.	.	4d	.	.
.	2F	2f	2a	2a
=49	=49	=49	=49	=49
0r	1G	2e	1b-	2.g
.	.	1d	.	.
.	.	.	.	4f
.	1A	.	2.a	1e
.	.	2c	.	.
.	.	.	4g	.
=50	=50	=50	=50	=50
1BB-	1B-	2.d	4f	2r
.	.	.	4e	.
.	.	.	1f	2d
.	.	4c	.	.
2D	1r	1B-	.	2f
2E	.	.	4e	2g
.	.	.	4d	.
=51	=51	=51	=51	=51
2.F	2r	1A	1c	2.a
.	2F	.	.	.
4E	.	.	.	4g
1D	2A	1r	1d	1f
.	2B-	.	.	.
=52	=52	=52	=52	=52
1C	2.c	2r	1g	2e
.	.	2c	.	1e
.	4B-	.	.	.
2r	1A	2e	1c	.
[2c	.	2f	.	4d
.	.	.	.	4c
=53	=53	=53	=53	=53
2c]	1.G	0g	0r	2.d
4B	.	.	.	.
4A	.	.	.	4c
2B	.	.	.	2d
2c	2C	.	.	2e
=54	=54	=54	=54	=54
2A	2F	0f	1r	2c
2.B-	2BB-	.	.	1d
.	1F	.	2r	.
4B-	.	.	.	.
2A	.	.	[2cc	2c
=55	=55	=55	=55	=55
1.G	0r	2r	2cc]	2e-
.	.	1g	4b	4d
.	.	.	4a	4c
.	.	.	2b	2d
2A	.	4f	2cc	2c
.	.	4e	.	.
=56	=56	=56	=56	=56
2F	0r	2f	2a	1d
2G	.	2d	2.b-	.
2D	.	2d	.	2r
.	.	.	4b-	.
2F	.	[2c	2a	[2f
=57	=57	=57	=57	=57
1C	2r	4c]	[0g	2f]
.	.	4c	.	.
.	1c	2c	.	1e
1r	.	1G	.	.
.	4B	.	.	4d
.	4A	.	.	4c
=58	=58	=58	=58	=58
0r	2B	2G	1g]	2d
.	2c	2c	.	2e
.	2A	2c	[1f	2f
.	[2B-	[2d	.	2d
=59	=59	=59	=59	=59
0r	4B-]	2d]	1f]	2B-
.	4B-	.	.	.
.	2A	2.c	.	2c
.	2.G	.	2r	1d
.	.	8B	.	.
.	.	8A	.	.
.	.	2B	[2g	.
.	4F	.	.	.
=60	=60	=60	=60	=60
2r	2E	0c	2g]	1c
1F	2F	.	1a	.
.	1C	.	.	1r
4E	.	.	4g	.
4D	.	.	4f	.
=61	=61	=61	=61	=61
2E	0r	2r	2g	1c
2F	.	2A	2a	.
2D	.	2.B-	2f	2d
[2E-	.	.	[2g	2B-
.	.	4A	.	.
=62	=62	=62	=62	=62
4E-]	0r	2G	4g]	1b-
4E-	.	.	4g	.
2D	.	2B-	2.f	.
1C	.	1c	.	2a
.	.	.	4e	.
.	.	.	2e	[2g
=63	=63	=63	=63	=63
2D	0r	2A	1d	4g]
.	.	.	.	4f
2BB-	.	2B-	.	1f
1C	.	1G	1c	.
.	.	.	.	2e
=64	=64	=64	=64	=64
1F	2r	1A	2r	2.f
.	1F	.	1a	.
.	.	.	.	8e
.	.	.	.	8d
1r	.	2r	.	1c
.	4E	2c	4g	.
.	4D	.	4f	.
=65	=65	=65	=65	=65
0r	2E	2c	2g	2r
.	2F	2A	2a	2c
.	2D	[1B-	2f	2d
.	[2E-	.	[2g	2G
=66	=66	=66	=66	=66
0r	4E-]	2B-]	4g]	1B-
.	4E-	.	4g	.
.	2D	2F	1f	.
.	1C	1G	.	2c
.	.	.	2e	2c
=67	=67	=67	=67	=67
2r	1BB-	1B-	2f	2.d
1B-	.	.	1d	.
.	.	.	.	4e
.	2r	1F	.	1f
4A	[2F	.	4c	.
4G	.	.	4B-	.
=68	=68	=68	=68	=68
2A	2F]	2r	2c	1f
2B-	2BB-	1f	2d	.
2F	2.D	.	2A	1r
[2B-	.	2d	[2f	.
.	4E	.	.	.
=69	=69	=69	=69	=69
4B-]	1F	1c	2f]	2.f
4A	.	.	.	.
2A	.	.	2c	.
.	.	.	.	4f
1B-	1BB-	2.f	1d	2d
.	.	.	.	4B-
.	.	4e	.	4c
=70	=70	=70	=70	=70
0BB-	0B-	0d	1f	4d
.	.	.	.	4e
.	.	.	.	2f
.	.	.	[1f	4d
.	.	.	.	4e
.	.	.	.	4f
.	.	.	.	4g
=71	=71	=71	=71	=71
0F	0A	0c	0f]	0a
*-	*-	*-	*-	*-
!!!CDT: 1525/^1526/-1594/2/2
!!!OCY: Italia
!!!AGN: Mass (Paraphrase)
!!!AST: renaissance, vocal
!!!ASW: Antiphon
!!!PWK: Masses, Book 11
!!!RNB: Cadence finals: C
!!!YOR: Le Opere Complete, v. 28, p. 148
!!!YOO: Rome, Italy: Fratelli Scalera
!!!END: 1992//
!!!EED: John Miller
!!!YEC: Copyright 2000, John Miller
!!!YEN: United States of America
!!!YEM: Rights to all derivative electronic formats reserved.
!!!YEM: Refer to licensing agreement for further details.
!!!YEM: This file must be accompanied by the licensing agreement.
!!!YEM: A copy of the licensing agreement may be found at http://www.music-cog.ohio-state.edu/HumdrumDatabases/Palestrina/license.txt
!!!EMD: converted to Humdrum by Bret Aarden
